twotone/svg/stars.svg

<svg xmlns="http://www.w3.org/2000/svg" width="24" height="24"><path fill="none" d="M0 0h24v24H0V0z"/><g fill="currentColor"><path opacity=".3" d="M19.47 9.16a8.027 8.027 0 0 0-7.01-5.14l2 4.71 5.01.43zM11.54 4.02c-3.22.18-5.92 2.27-7.02 5.15l5.02-.43 2-4.72zM4.23 10.14C4.08 10.74 4 11.36 4 12c0 2.48 1.14 4.7 2.91 6.17l1.11-4.75-3.79-3.28zM19.77 10.13l-3.79 3.28 1.1 4.76A7.99 7.99 0 0 0 20 12c0-.64-.09-1.27-.23-1.87zM7.84 18.82c1.21.74 2.63 1.18 4.15 1.18 1.53 0 2.95-.44 4.17-1.18L12 16.31l-4.16 2.51z"/><path d="M11.99 2C6.47 2 2 6.48 2 12s4.47 10 9.99 10C17.52 22 22 17.52 22 12S17.52 2 11.99 2zm7.48 7.16l-5.01-.43-2-4.71c3.21.19 5.91 2.27 7.01 5.14zM12 8.06l1.09 2.56 2.78.24-2.11 1.83.63 2.73L12 13.98l-2.39 1.44.63-2.72-2.11-1.83 2.78-.24L12 8.06zm-.46-4.04l-2 4.72-5.02.43c1.1-2.88 3.8-4.97 7.02-5.15zM4 12c0-.64.08-1.26.23-1.86l3.79 3.28-1.11 4.75A8.014 8.014 0 0 1 4 12zm7.99 8c-1.52 0-2.94-.44-4.15-1.18L12 16.31l4.16 2.51A8.008 8.008 0 0 1 11.99 20zm5.1-1.83l-1.1-4.76 3.79-3.28c.13.6.22 1.23.22 1.87 0 2.48-1.14 4.7-2.91 6.17z"/></g></svg>

<?xml version="1.0" encoding="utf-8"?>
<!-- Generator: Adobe Illustrator 19.1.0, SVG Export Plug-In . SVG Version: 6.00 Build 0)  -->
<svg version="1.1" xmlns="http://www.w3.org/2000/svg" xmlns:xlink="http://www.w3.org/1999/xlink" x="0px" y="0px" width="24px"
	 height="24px" viewBox="0 0 24 24" enable-background="new 0 0 24 24" xml:space="preserve">
<g id="Bounding_Boxes">
	<g id="ui_x5F_spec_x5F_header_copy_3" display="none">
	</g>
	<path fill="none" d="M0,0h24v24H0V0z"/>
</g>
<g id="Duotone" fill="currentColor">
	<g id="ui_x5F_spec_x5F_header_copy_2" display="none">
	</g>
	<g>
		<g>
			<path opacity="0.3" d="M19.47,9.16c-1.1-2.87-3.8-4.95-7.01-5.14l2,4.71L19.47,9.16z"/>
			<path opacity="0.3" d="M11.54,4.02C8.32,4.2,5.62,6.29,4.52,9.17l5.02-0.43L11.54,4.02z"/>
			<path opacity="0.3" d="M4.23,10.14C4.08,10.74,4,11.36,4,12c0,2.48,1.14,4.7,2.91,6.17l1.11-4.75L4.23,10.14z"/>
			<path opacity="0.3" d="M19.77,10.13l-3.79,3.28l1.1,4.76C18.86,16.7,20,14.48,20,12C20,11.36,19.91,10.73,19.77,10.13z"/>
			<path opacity="0.3" d="M7.84,18.82C9.05,19.56,10.47,20,11.99,20c1.53,0,2.95-0.44,4.17-1.18L12,16.31L7.84,18.82z"/>
		</g>
		<path d="M11.99,2C6.47,2,2,6.48,2,12c0,5.52,4.47,10,9.99,10C17.52,22,22,17.52,22,12C22,6.48,17.52,2,11.99,2z M19.47,9.16
			l-5.01-0.43l-2-4.71C15.67,4.21,18.37,6.29,19.47,9.16z M12,8.06l1.09,2.56l2.78,0.24l-2.11,1.83l0.63,2.73L12,13.98l-2.39,1.44
			l0.63-2.72l-2.11-1.83l2.78-0.24L12,8.06z M11.54,4.02l-2,4.72L4.52,9.17C5.62,6.29,8.32,4.2,11.54,4.02z M4,12
			c0-0.64,0.08-1.26,0.23-1.86l3.79,3.28l-1.11,4.75C5.14,16.7,4,14.48,4,12z M11.99,20c-1.52,0-2.94-0.44-4.15-1.18L12,16.31
			l4.16,2.51C14.94,19.56,13.52,20,11.99,20z M17.09,18.17l-1.1-4.76l3.79-3.28C19.91,10.73,20,11.36,20,12
			C20,14.48,18.86,16.7,17.09,18.17z"/>
	</g>
</g>
</svg>
